adaptive-icons/Test-Icons--V5/action/bug-filled-10.svg

<svg height="10" viewBox="0 0 10 10" width="10" xmlns="http://www.w3.org/2000/svg"><g fill="none" fill-rule="evenodd"><path d="m5 1.995c-1.282 0-2.324 1.002-2.324 2.284v2.564a2.325 2.325 0 0 0 2.324 2.324 2.325 2.325 0 0 0 2.324-2.324v-2.524a2.325 2.325 0 0 0 -2.324-2.324zm1.755 3.862c0 .46-.374.834-.834.834h-.44a.834.834 0 0 1 0 1.667h-.962a.834.834 0 0 1 0-1.667h-.44a.834.834 0 0 1 0-1.667.834.834 0 0 1 0-1.667h1.841a.834.834 0 0 1 0 1.667c.46 0 .834.374.834.833z" fill="#282d37" fill-rule="nonzero"/><g stroke="#282d37" stroke-linecap="round" stroke-linejoin="round"><path d="m6.242 2.316c.64-.401.962-.922 1.042-1.483m-4.568 0c.08.561.441 1.042 1.042 1.483m3.566 2.003a2.325 2.325 0 0 0 -2.324-2.324c-1.282 0-2.324 1.002-2.324 2.284v2.564a2.325 2.325 0 0 0 2.324 2.324 2.325 2.325 0 0 0 2.324-2.324zm1.843 3.686-.441-.48h-1.504m1.945-2.853-.441-.481h-1.402m-4.648 0h-1.402l-.44.48m8.333 1.667-.441-.48h-1.402m-4.546 1.666h-1.504l-.44.48m1.842-2.146h-1.402l-.44.48" stroke-width="1.125"/><path d="m4.52 8.357a.834.834 0 0 1 0-1.666h.96a.834.834 0 0 1 0 1.667h-.96zm1.4-1.666a.834.834 0 0 0 0-1.667h-1.842a.834.834 0 0 0 0 1.667h1.843zm0-1.667a.834.834 0 0 0 0-1.667h-1.842a.834.834 0 0 0 0 1.667h1.843z" stroke-width=".833"/></g></g></svg>

<svg xmlns="http://www.w3.org/2000/svg" id="3" width="10" height="10" viewBox="0 0 10 10"><g fill="none" fill-rule="evenodd" class="page-1"><g class="bug"><path fill="#282D37" fill-rule="nonzero" d="M5 1.995c-1.282 0-2.324 1.002-2.324 2.284v2.564A2.325 2.325 0 0 0 5 9.167a2.325 2.325 0 0 0 2.324-2.324V4.319A2.325 2.325 0 0 0 5 1.995Zm1.755 3.862c0 .46-.374.834-.834.834h-.44a.834.834 0 0 1 0 1.667h-.962a.834.834 0 0 1 0-1.667h-.44a.834.834 0 0 1 0-1.667.834.834 0 0 1 0-1.667H5.92a.834.834 0 0 1 0 1.667c.46 0 .834.374.834.833Z" class="fill"/><path stroke="#282D37" stroke-linecap="round" stroke-linejoin="round" stroke-width="1.125" d="M6.242 2.316c.64-.401.962-.922 1.042-1.483m-4.568 0c.08.561.441 1.042 1.042 1.483m3.566 2.003A2.325 2.325 0 0 0 5 1.995c-1.282 0-2.324 1.002-2.324 2.284v2.564A2.325 2.325 0 0 0 5 9.167a2.325 2.325 0 0 0 2.324-2.324V4.319Zm1.843 3.686-.441-.48H7.222m1.945-2.853-.441-.481H7.324m-4.648 0H1.274l-.44.48m8.333 1.667-.441-.48H7.324M2.778 7.524H1.274l-.44.48m1.842-2.146H1.274l-.44.48" class="stroke"/><path stroke="#282D37" stroke-linecap="round" stroke-linejoin="round" stroke-width=".833" d="M4.52 8.357a.834.834 0 0 1 0-1.666h.96a.834.834 0 0 1 0 1.667h-.96Zm1.4-1.666a.834.834 0 0 0 0-1.667H4.078a.834.834 0 0 0 0 1.667h1.843Zm0-1.667a.834.834 0 0 0 0-1.667H4.078a.834.834 0 0 0 0 1.667h1.843Z" class="cutout"/></g></g></svg>
